svg/u1f193.svg

<svg viewBox="0 0 128 128" xmlns="http://www.w3.org/2000/svg">
  <g>
    <path d="M116,4H12c-4.42,0-8,3.58-8,8v104c0,4.42,3.58,8,8,8h104c4.42,0,8-3.58,8-8V12 C124,7.58,120.42,4,116,4z" fill="#427687"/>
    <path d="M109.7,4H11.5C7.37,4.03,4.03,7.37,4,11.5v97.9c-0.01,4.14,3.34,7.49,7.48,7.5c0.01,0,0.01,0,0.02,0 h98.1c4.14,0.01,7.49-3.34,7.5-7.48c0-0.01,0-0.01,0-0.02V11.5c0.09-4.05-3.13-7.41-7.18-7.5C109.85,4,109.77,4,109.7,4z" fill="#8CAFBF"/>
    <path d="M39.7,12.9c0-2.3-1.6-3-10.8-2.7c-7.7,0.3-11.5,1.2-13.8,4 s-2.9,8.5-3,15.3c0,4.8,0,9.3,2.5,9.3c3.4,0,3.4-7.9,6.2-12.3C26.2,17.8,39.7,15.9,39.7,12.9z" opacity="0.3" fill="#FFFFFF" enable-background="new "/>
  </g>
  <g>
    <path d="M19.15,80.3h-6.7V48.18h18.41v5.58H19.15v8.28h10.9v5.56h-10.9V80.3z" fill="#FAFAFA"/>
    <path d="M43.51,67.98V80.3H36.7V48.18h9.36c4.37,0,7.6,0.79,9.69,2.38c2.09,1.59,3.14,4,3.14,7.24 c0,1.89-0.52,3.57-1.56,5.04c-1.04,1.47-2.51,2.62-4.42,3.46l9.45,14H54.8l-7.67-12.33H43.51z M43.51,62.44h2.2 c2.15,0,3.74-0.36,4.77-1.08s1.54-1.85,1.54-3.38c0-1.52-0.52-2.61-1.57-3.25c-1.05-0.64-2.67-0.97-4.87-0.97h-2.07V62.44z" fill="#FAFAFA"/>
    <path d="M84.91,80.3h-18.5V48.18h18.5v5.58H73.22v7.05h10.88v5.58H73.22v8.28h11.69V80.3z" fill="#FAFAFA"/>
    <path d="M108.86,80.3h-18.5V48.18h18.5v5.58H97.17v7.05h10.88v5.58H97.17v8.28h11.69V80.3z" fill="#FAFAFA"/>
  </g>
</svg>

<svg viewBox="0 0 128 128" xmlns="http://www.w3.org/2000/svg">
  <defs/>
  <path d="M116,4 L12,4 C7.58,4 4,7.58 4,12 L4,116 C4,120.42 7.58,124 12,124 L116,124 C120.42,124 124,120.42 124,116 L124,12 C124,7.58 120.42,4 116,4 Z" fill="#427687"/>
  <path d="M109.7,4 L11.5,4 C7.37,4.03 4.03,7.37 4,11.5 L4,109.4 C3.99,113.54 7.34,116.89 11.48,116.9 C11.49,116.9 11.49,116.9 11.5,116.9 L109.6,116.9 C113.74,116.91 117.09,113.56 117.1,109.42 C117.1,109.41 117.1,109.41 117.1,109.4 L117.1,11.5 C117.19,7.45 113.97,4.09 109.92,4 C109.85,4 109.77,4 109.7,4 Z" fill="#8CAFBF"/>
  <path d="M39.7,12.9 C39.7,10.6 38.1,9.9 28.9,10.2 C21.2,10.5 17.4,11.4 15.1,14.2 C12.8,17 12.2,22.7 12.1,29.5 C12.1,34.3 12.1,38.8 14.6,38.8 C18,38.8 18,30.9 20.8,26.5 C26.2,17.8 39.7,15.9 39.7,12.9 Z" fill="#FFFFFF" opacity="0.3"/>
  <path d="M19.15,80.3 L12.45,80.3 L12.45,48.18 L30.86,48.18 L30.86,53.76 L19.15,53.76 L19.15,62.04 L30.05,62.04 L30.05,67.6 L19.15,67.6 L19.15,80.3 Z" fill="#FAFAFA"/>
  <path d="M43.51,67.98 L43.51,80.3 L36.7,80.3 L36.7,48.18 L46.06,48.18 C50.43,48.18 53.66,48.97 55.75,50.56 C57.84,52.15 58.89,54.56 58.89,57.8 C58.89,59.69 58.37,61.37 57.33,62.84 C56.29,64.31 54.82,65.46 52.91,66.3 L62.36,80.3 L54.8,80.3 L47.13,67.97 L43.51,67.97 Z M43.51,62.44 L45.71,62.44 C47.86,62.44 49.45,62.08 50.48,61.36 C51.51,60.64 52.02,59.51 52.02,57.98 C52.02,56.46 51.5,55.37 50.45,54.73 C49.4,54.09 47.78,53.76 45.58,53.76 L43.51,53.76 L43.51,62.44 Z" fill="#FAFAFA"/>
  <path d="M84.91,80.3 L66.41,80.3 L66.41,48.18 L84.91,48.18 L84.91,53.76 L73.22,53.76 L73.22,60.81 L84.1,60.81 L84.1,66.39 L73.22,66.39 L73.22,74.67 L84.91,74.67 L84.91,80.3 Z" fill="#FAFAFA"/>
  <path d="M108.86,80.3 L90.36,80.3 L90.36,48.18 L108.86,48.18 L108.86,53.76 L97.17,53.76 L97.17,60.81 L108.05,60.81 L108.05,66.39 L97.17,66.39 L97.17,74.67 L108.86,74.67 L108.86,80.3 Z" fill="#FAFAFA"/>
</svg>
